packages/foundations/assets/icons/functional/images/environment/sun_16.svg

<svg width="16" height="16" viewBox="0 0 16 16" fill="none" xmlns="http://www.w3.org/2000/svg">
<g clip-path="url(#clip0_185_858)">
<path fill-rule="evenodd" clip-rule="evenodd" d="M7.99998 12C8.4418 12 8.79998 12.3582 8.79998 12.8V13.6C8.79998 14.0418 8.4418 14.4 7.99998 14.4C7.55815 14.4 7.19998 14.0418 7.19998 13.6V12.8C7.19998 12.3582 7.55815 12 7.99998 12ZM11.9598 10.8284L12.5255 11.3941C12.8379 11.7065 12.8379 12.2131 12.5255 12.5255C12.213 12.8379 11.7065 12.8379 11.3941 12.5255L10.8284 11.9598C10.516 11.6474 10.516 11.1409 10.8284 10.8284C11.1408 10.516 11.6474 10.516 11.9598 10.8284ZM5.17155 10.8284C5.48397 11.1409 5.48397 11.6474 5.17155 11.9598L4.60586 12.5255C4.49226 12.6391 4.35298 12.7114 4.20671 12.7424L4.09598 12.7579H3.98438C3.79862 12.745 3.6165 12.6675 3.47449 12.5255C3.16207 12.2131 3.16207 11.7065 3.47449 11.3941L4.04018 10.8284C4.3526 10.516 4.85913 10.516 5.17155 10.8284ZM7.99998 4.80001C9.76729 4.80001 11.2 6.2327 11.2 8.00001C11.2 9.76732 9.76729 11.2 7.99998 11.2C6.23266 11.2 4.79998 9.76732 4.79998 8.00001C4.79998 6.2327 6.23266 4.80001 7.99998 4.80001ZM7.99998 6.40001C7.11632 6.40001 6.39998 7.11635 6.39998 8.00001C6.39998 8.88366 7.11632 9.60001 7.99998 9.60001C8.88363 9.60001 9.59998 8.88366 9.59998 8.00001C9.59998 7.11635 8.88363 6.40001 7.99998 6.40001ZM13.6 7.20001C14.0418 7.20001 14.4 7.55818 14.4 8.00001C14.4 8.44183 14.0418 8.80001 13.6 8.80001H12.8C12.3581 8.80001 12 8.44183 12 8.00001C12 7.55818 12.3581 7.20001 12.8 7.20001H13.6ZM3.19998 7.20001C3.6418 7.20001 3.99998 7.55818 3.99998 8.00001C3.99998 8.44183 3.6418 8.80001 3.19998 8.80001H2.39998C1.95815 8.80001 1.59998 8.44183 1.59998 8.00001C1.59998 7.55818 1.95815 7.20001 2.39998 7.20001H3.19998ZM4.60586 3.47452L5.17155 4.04021C5.48397 4.35263 5.48397 4.85916 5.17155 5.17158C4.85913 5.484 4.3526 5.484 4.04018 5.17158L3.47449 4.60589C3.16207 4.29347 3.16207 3.78694 3.47449 3.47452C3.78691 3.1621 4.29344 3.1621 4.60586 3.47452ZM12.5255 3.47452C12.8379 3.78694 12.8379 4.29347 12.5255 4.60589L11.9598 5.17158C11.8462 5.28519 11.7069 5.35748 11.5606 5.38847L11.4499 5.40396H11.3383C11.1525 5.39105 10.9704 5.31359 10.8284 5.17158C10.516 4.85916 10.516 4.35263 10.8284 4.04021L11.3941 3.47452C11.7065 3.1621 12.213 3.1621 12.5255 3.47452ZM7.99998 1.60001C8.4418 1.60001 8.79998 1.95818 8.79998 2.40001V3.20001C8.79998 3.64183 8.4418 4.00001 7.99998 4.00001C7.55815 4.00001 7.19998 3.64183 7.19998 3.20001V2.40001C7.19998 1.95818 7.55815 1.60001 7.99998 1.60001Z" fill="#1A1C1F"/>
</g>
<defs>
<clipPath id="clip0_185_858">
<rect width="16" height="16" fill="white"/>
</clipPath>
</defs>
</svg>

<svg xmlns="http://www.w3.org/2000/svg" width="16" height="16" fill="none"><g clip-path="url(#a)"><path fill="#1A1C1F" fill-rule="evenodd" d="M8 12a.8.8 0 0 1 .8.8v.8a.8.8 0 0 1-1.6 0v-.8A.8.8 0 0 1 8 12m3.96-1.172.565.566a.8.8 0 0 1-1.13 1.131l-.567-.565a.8.8 0 0 1 1.132-1.132m-6.788 0a.8.8 0 0 1 0 1.132l-.566.565a.8.8 0 0 1-.4.217l-.11.016h-.112a.8.8 0 0 1-.51-1.364l.566-.566a.8.8 0 0 1 1.132 0M8 4.8a3.2 3.2 0 1 1 0 6.4 3.2 3.2 0 0 1 0-6.4m0 1.6a1.6 1.6 0 1 0 0 3.2 1.6 1.6 0 0 0 0-3.2m5.6.8a.8.8 0 0 1 0 1.6h-.8a.8.8 0 1 1 0-1.6zm-10.4 0a.8.8 0 0 1 0 1.6h-.8a.8.8 0 0 1 0-1.6zm1.406-3.725.566.565A.8.8 0 1 1 4.04 5.172l-.566-.566a.8.8 0 1 1 1.132-1.131m7.92 0a.8.8 0 0 1 0 1.13l-.566.567a.8.8 0 0 1-.4.216l-.11.016h-.112a.8.8 0 0 1-.51-1.364l.566-.565a.8.8 0 0 1 1.131 0M8 1.6a.8.8 0 0 1 .8.8v.8a.8.8 0 0 1-1.6 0v-.8a.8.8 0 0 1 .8-.8" clip-rule="evenodd"/></g><defs><clipPath id="a"><path fill="#fff" d="M0 0h16v16H0z"/></clipPath></defs></svg>
